austria/municipalities/70315.svg

<?xml version="1.0" encoding="UTF-8"?>
<!DOCTYPE svg PUBLIC "-//W3C//DTD SVG 1.1//EN" "http://www.w3.org/Graphics/SVG/1.1/DTD/svg11.dtd">
<svg xmlns="http://www.w3.org/2000/svg" version="1.1" width="166px" height="192px" style="shape-rendering:geometricPrecision; text-rendering:geometricPrecision; image-rendering:optimizeQuality; fill-rule:evenodd; clip-rule:evenodd" xmlns:xlink="http://www.w3.org/1999/xlink">
<g><path style="opacity:1" fill="#0b0b06" d="M -0.5,-0.5 C 54.8333,-0.5 110.167,-0.5 165.5,-0.5C 165.5,39.5 165.5,79.5 165.5,119.5C 157.038,159.629 132.705,183.629 92.5,191.5C 85.5,191.5 78.5,191.5 71.5,191.5C 30.9271,182.927 6.9271,158.261 -0.5,117.5C -0.5,78.1667 -0.5,38.8333 -0.5,-0.5 Z"/></g>
<g><path style="opacity:1" fill="#e5a41c" d="M 81.5,3.5 C 81.8222,9.358 81.4889,15.0247 80.5,20.5C 71.1427,15.6061 61.1427,12.9394 50.5,12.5C 39.9519,12.4603 30.6186,15.7936 22.5,22.5C 41.6177,35.1707 61.2844,35.8374 81.5,24.5C 81.8269,34.015 81.4936,43.3483 80.5,52.5C 62.7528,42.4791 44.7528,41.9791 26.5,51C 24.9386,51.941 23.6053,53.1076 22.5,54.5C 36.2382,64.2796 51.2382,66.7796 67.5,62C 72.2785,60.4438 76.9452,58.6105 81.5,56.5C 82.8333,65.8333 82.8333,75.1667 81.5,84.5C 62.5318,72.8316 43.5318,72.6649 24.5,84C 23.6433,84.6891 22.9767,85.5224 22.5,86.5C 34.9117,95.044 48.5784,97.8774 63.5,95C 69.9551,93.1884 76.1218,90.6884 82,87.5C 82.8321,97.1839 82.6655,106.851 81.5,116.5C 66.3062,107.132 50.3062,105.298 33.5,111C 29.3253,112.584 25.6587,114.918 22.5,118C 35.5054,127.38 49.8388,130.046 65.5,126C 70.7328,124.713 75.7328,122.88 80.5,120.5C 81.8333,129.5 81.8333,138.5 80.5,147.5C 66.2829,139.262 51.2829,137.428 35.5,142C 30.8721,143.981 26.5387,146.481 22.5,149.5C 35.0984,158.787 49.0984,161.62 64.5,158C 70.3778,156.395 76.0445,154.228 81.5,151.5C 82.499,163.482 82.8323,175.482 82.5,187.5C 49.0024,186.16 24.8357,170.493 10,140.5C 7.05805,132.732 5.05805,124.732 4,116.5C 3.50001,78.8348 3.33335,41.1681 3.5,3.5C 29.5,3.5 55.5,3.5 81.5,3.5 Z"/></g>
<g><path style="opacity:1" fill="#856322" d="M 81.5,3.5 C 81.8333,3.5 82.1667,3.5 82.5,3.5C 82.8293,9.53675 82.4959,15.5368 81.5,21.5C 80.8933,21.3764 80.56,21.0431 80.5,20.5C 81.4889,15.0247 81.8222,9.358 81.5,3.5 Z"/></g>
<g><path style="opacity:1" fill="#185b2a" d="M 83.5,3.5 C 109.5,3.5 135.5,3.5 161.5,3.5C 161.667,41.8348 161.5,80.1681 161,118.5C 152.942,161.388 127.109,184.388 83.5,187.5C 83.1677,175.482 83.501,163.482 84.5,151.5C 100.564,160.649 117.231,161.816 134.5,155C 137.378,153.401 140.044,151.567 142.5,149.5C 130.034,139.722 116.034,136.889 100.5,141C 94.6872,142.823 89.1872,145.323 84,148.5C 83.3333,138.833 83.3333,129.167 84,119.5C 102.695,129.938 121.528,130.105 140.5,120C 141.357,119.311 142.023,118.478 142.5,117.5C 123.318,104.538 103.818,104.205 84,116.5C 83.1679,107.149 83.3346,97.8155 84.5,88.5C 100.331,96.4086 116.664,97.5753 133.5,92C 136.834,90.6686 139.834,88.8353 142.5,86.5C 130.731,77.0584 117.397,73.8918 102.5,77C 96.156,78.6719 90.156,81.1719 84.5,84.5C 83.3346,75.1845 83.1679,65.8511 84,56.5C 104.042,67.7613 123.542,67.0946 142.5,54.5C 134.153,47.6057 124.487,44.2724 113.5,44.5C 103.106,44.5152 93.4395,47.1819 84.5,52.5C 83.3346,43.1845 83.1679,33.8511 84,24.5C 102.739,34.9355 121.572,35.1022 140.5,25C 141.357,24.3109 142.023,23.4776 142.5,22.5C 123.311,9.53456 103.811,9.20123 84,21.5C 83.5005,15.5092 83.3338,9.50924 83.5,3.5 Z"/></g>
<g><path style="opacity:1" fill="#826022" d="M 81.5,24.5 C 82.8225,34.008 82.8225,43.6746 81.5,53.5C 80.8933,53.3764 80.56,53.0431 80.5,52.5C 81.4936,43.3483 81.8269,34.015 81.5,24.5 Z"/></g>
<g><path style="opacity:1" fill="#fdfdfd" d="M -0.5,117.5 C 6.9271,158.261 30.9271,182.927 71.5,191.5C 47.5,191.5 23.5,191.5 -0.5,191.5C -0.5,166.833 -0.5,142.167 -0.5,117.5 Z"/></g>
<g><path style="opacity:1" fill="#846222" d="M 80.5,120.5 C 80.56,119.957 80.8933,119.624 81.5,119.5C 82.8333,129.167 82.8333,138.833 81.5,148.5C 80.8933,148.376 80.56,148.043 80.5,147.5C 81.8333,138.5 81.8333,129.5 80.5,120.5 Z"/></g>
<g><path style="opacity:1" fill="#fdfdfd" d="M 165.5,119.5 C 165.5,143.5 165.5,167.5 165.5,191.5C 141.167,191.5 116.833,191.5 92.5,191.5C 132.705,183.629 157.038,159.629 165.5,119.5 Z"/></g>
<g><path style="opacity:1" fill="#12130a" d="M 82.5,3.5 C 82.8333,3.5 83.1667,3.5 83.5,3.5C 83.3338,9.50924 83.5005,15.5092 84,21.5C 103.811,9.20123 123.311,9.53456 142.5,22.5C 142.023,23.4776 141.357,24.3109 140.5,25C 121.572,35.1022 102.739,34.9355 84,24.5C 83.1679,33.8511 83.3346,43.1845 84.5,52.5C 93.4395,47.1819 103.106,44.5152 113.5,44.5C 124.487,44.2724 134.153,47.6057 142.5,54.5C 123.542,67.0946 104.042,67.7613 84,56.5C 83.1679,65.8511 83.3346,75.1845 84.5,84.5C 90.156,81.1719 96.156,78.6719 102.5,77C 117.397,73.8918 130.731,77.0584 142.5,86.5C 139.834,88.8353 136.834,90.6686 133.5,92C 116.664,97.5753 100.331,96.4086 84.5,88.5C 83.3346,97.8155 83.1679,107.149 84,116.5C 103.818,104.205 123.318,104.538 142.5,117.5C 142.023,118.478 141.357,119.311 140.5,120C 121.528,130.105 102.695,129.938 84,119.5C 83.3333,129.167 83.3333,138.833 84,148.5C 89.1872,145.323 94.6872,142.823 100.5,141C 116.034,136.889 130.034,139.722 142.5,149.5C 140.044,151.567 137.378,153.401 134.5,155C 117.231,161.816 100.564,160.649 84.5,151.5C 83.501,163.482 83.1677,175.482 83.5,187.5C 83.1667,187.5 82.8333,187.5 82.5,187.5C 82.8323,175.482 82.499,163.482 81.5,151.5C 76.0445,154.228 70.3778,156.395 64.5,158C 49.0984,161.62 35.0984,158.787 22.5,149.5C 26.5387,146.481 30.8721,143.981 35.5,142C 51.2829,137.428 66.2829,139.262 80.5,147.5C 80.56,148.043 80.8933,148.376 81.5,148.5C 82.8333,138.833 82.8333,129.167 81.5,119.5C 80.8933,119.624 80.56,119.957 80.5,120.5C 75.7328,122.88 70.7328,124.713 65.5,126C 49.8388,130.046 35.5054,127.38 22.5,118C 25.6587,114.918 29.3253,112.584 33.5,111C 50.3062,105.298 66.3062,107.132 81.5,116.5C 82.6655,106.851 82.8321,97.1839 82,87.5C 76.1218,90.6884 69.9551,93.1884 63.5,95C 48.5784,97.8774 34.9117,95.044 22.5,86.5C 22.9767,85.5224 23.6433,84.6891 24.5,84C 43.5318,72.6649 62.5318,72.8316 81.5,84.5C 82.8333,75.1667 82.8333,65.8333 81.5,56.5C 76.9452,58.6105 72.2785,60.4438 67.5,62C 51.2382,66.7796 36.2382,64.2796 22.5,54.5C 23.6053,53.1076 24.9386,51.941 26.5,51C 44.7528,41.9791 62.7528,42.4791 80.5,52.5C 80.56,53.0431 80.8933,53.3764 81.5,53.5C 82.8225,43.6746 82.8225,34.008 81.5,24.5C 61.2844,35.8374 41.6177,35.1707 22.5,22.5C 30.6186,15.7936 39.9519,12.4603 50.5,12.5C 61.1427,12.9394 71.1427,15.6061 80.5,20.5C 80.56,21.0431 80.8933,21.3764 81.5,21.5C 82.4959,15.5368 82.8293,9.53675 82.5,3.5 Z"/></g>
<g><path style="opacity:1" fill="#e4a31c" d="M 106.5,109.5 C 118.894,108.265 130.228,111.099 140.5,118C 121.767,129.221 103.1,129.221 84.5,118C 91.6253,114.243 98.9586,111.409 106.5,109.5 Z"/></g>
<g><path style="opacity:1" fill="#185b2a" d="M 42.5,109.5 C 56.0951,108.232 68.7618,111.066 80.5,118C 68.4321,124.945 55.4321,127.278 41.5,125C 35.5011,123.501 29.8344,121.168 24.5,118C 30.1977,114.316 36.1977,111.482 42.5,109.5 Z"/></g>
<g><path style="opacity:1" fill="#e4a31c" d="M 106.5,77.5 C 118.815,76.5942 130.148,79.4275 140.5,86C 122.276,97.0563 103.943,97.223 85.5,86.5C 87.4566,84.5152 89.7899,83.0152 92.5,82C 97.2855,80.4784 101.952,78.9784 106.5,77.5 Z"/></g>
<g><path style="opacity:1" fill="#185b2a" d="M 45.5,77.5 C 58.1278,76.9067 69.7945,79.9067 80.5,86.5C 66.5862,94.1778 51.9195,96.0111 36.5,92C 32.3847,90.7765 28.718,88.7765 25.5,86C 31.6832,81.7338 38.3498,78.9005 45.5,77.5 Z"/></g>
<g><path style="opacity:1" fill="#e4a31c" d="M 108.5,45.5 C 119.963,44.9456 130.296,47.9456 139.5,54.5C 121.34,64.9167 103.007,65.0834 84.5,55C 92.0175,50.3334 100.017,47.1667 108.5,45.5 Z"/></g>
<g><path style="opacity:1" fill="#185b2a" d="M 48.5,45.5 C 60.1162,45.5695 70.7828,48.7361 80.5,55C 61.9669,65.0608 43.6336,64.8942 25.5,54.5C 32.4089,49.3128 40.0756,46.3128 48.5,45.5 Z"/></g>
<g><path style="opacity:1" fill="#e5a41c" d="M 104.5,14.5 C 117.301,12.6186 128.968,15.2853 139.5,22.5C 134.273,26.6374 128.273,29.1374 121.5,30C 108.321,32.0308 95.9881,29.6974 84.5,23C 90.8892,19.2996 97.5559,16.4663 104.5,14.5 Z"/></g>
<g><path style="opacity:1" fill="#185a2a" d="M 41.5,14.5 C 55.5466,12.7631 68.5466,15.5964 80.5,23C 65.1132,31.2631 49.1132,32.5965 32.5,27C 29.7899,25.9848 27.4566,24.4848 25.5,22.5C 30.6569,19.2548 35.9902,16.5882 41.5,14.5 Z"/></g>
<g><path style="opacity:1" fill="#185b2a" d="M 41.5,141.5 C 55.5581,139.766 68.5581,142.6 80.5,150C 67.2899,157.369 53.2899,159.369 38.5,156C 33.6628,154.676 29.3294,152.51 25.5,149.5C 30.6043,146.251 35.9376,143.585 41.5,141.5 Z"/></g>
<g><path style="opacity:1" fill="#e3a31c" d="M 109.5,140.5 C 116.651,140.697 123.651,141.863 130.5,144C 133.87,145.346 136.87,147.179 139.5,149.5C 129.221,156.258 117.888,158.758 105.5,157C 98.0284,156.098 91.0284,153.765 84.5,150C 92.4467,145.522 100.78,142.356 109.5,140.5 Z"/></g>
</svg>

<svg xmlns="http://www.w3.org/2000/svg" width="166" height="192" style="shape-rendering:geometricPrecision;text-rendering:geometricPrecision;image-rendering:optimizeQuality;fill-rule:evenodd;clip-rule:evenodd"><path style="opacity:1" fill="#0b0b06" d="M-.5-.5h166v120c-8.462 40.129-32.795 64.129-73 72h-21c-40.573-8.573-64.573-33.239-72-74V-.5z"/><path style="opacity:1" fill="#e5a41c" d="M81.5 3.5c.322 5.858-.011 11.525-1 17-9.357-4.894-19.357-7.56-30-8-10.548-.04-19.881 3.294-28 10 19.118 12.67 38.784 13.337 59 2 .327 9.515-.006 18.848-1 28-17.747-10.02-35.747-10.52-54-1.5a14.832 14.832 0 0 0-4 3.5c13.738 9.78 28.738 12.28 45 7.5a126.288 126.288 0 0 0 14-5.5 98.502 98.502 0 0 1 0 28c-18.968-11.668-37.968-11.835-57-.5a7.253 7.253 0 0 0-2 2.5c12.412 8.544 26.078 11.377 41 8.5A89.27 89.27 0 0 0 82 87.5a140.73 140.73 0 0 1-.5 29c-15.194-9.368-31.194-11.202-48-5.5-4.175 1.584-7.841 3.918-11 7 13.005 9.38 27.339 12.046 43 8a71.933 71.933 0 0 0 15-5.5c1.333 9 1.333 18 0 27-14.217-8.238-29.217-10.072-45-5.5a63.132 63.132 0 0 0-13 7.5c12.598 9.287 26.598 12.12 42 8.5a92.257 92.257 0 0 0 17-6.5 324.876 324.876 0 0 1 1 36c-33.498-1.34-57.664-17.007-72.5-47a105.508 105.508 0 0 1-6-24c-.5-37.665-.667-75.332-.5-113h78z"/><path style="opacity:1" fill="#856322" d="M81.5 3.5h1a81.872 81.872 0 0 1-1 18c-.607-.124-.94-.457-1-1 .989-5.475 1.322-11.142 1-17z"/><path style="opacity:1" fill="#185b2a" d="M83.5 3.5h78c.167 38.335 0 76.668-.5 115-8.058 42.888-33.891 65.888-77.5 69a324.876 324.876 0 0 1 1-36c16.064 9.149 32.731 10.316 50 3.5a50.404 50.404 0 0 0 8-5.5c-12.466-9.778-26.466-12.611-42-8.5a73.695 73.695 0 0 0-16.5 7.5 210.49 210.49 0 0 1 0-29c18.695 10.438 37.528 10.605 56.5.5a7.248 7.248 0 0 0 2-2.5c-19.182-12.962-38.682-13.295-58.5-1a131.226 131.226 0 0 1 .5-28c15.831 7.909 32.164 9.075 49 3.5a31.002 31.002 0 0 0 9-5.5c-11.769-9.442-25.103-12.608-40-9.5a71.011 71.011 0 0 0-18 7.5 131.226 131.226 0 0 1-.5-28c20.042 11.261 39.542 10.595 58.5-2-8.347-6.894-18.013-10.228-29-10-10.394.015-20.06 2.682-29 8a131.226 131.226 0 0 1-.5-28c18.739 10.435 37.572 10.602 56.5.5a7.253 7.253 0 0 0 2-2.5c-19.189-12.965-38.689-13.299-58.5-1-.5-5.99-.666-11.99-.5-18z"/><path style="opacity:1" fill="#826022" d="M81.5 24.5c1.323 9.508 1.323 19.175 0 29-.607-.124-.94-.457-1-1 .994-9.152 1.327-18.485 1-28z"/><path style="opacity:1" fill="#fdfdfd" d="M-.5 117.5c7.427 40.761 31.427 65.427 72 74h-72v-74z"/><path style="opacity:1" fill="#846222" d="M80.5 120.5c.06-.543.393-.876 1-1a105.628 105.628 0 0 1 0 29c-.607-.124-.94-.457-1-1 1.333-9 1.333-18 0-27z"/><path style="opacity:1" fill="#fdfdfd" d="M165.5 119.5v72h-73c40.205-7.871 64.538-31.871 73-72z"/><path style="opacity:1" fill="#12130a" d="M82.5 3.5h1c-.166 6.01 0 12.01.5 18 19.811-12.299 39.311-11.965 58.5 1a7.253 7.253 0 0 1-2 2.5c-18.928 10.102-37.761 9.935-56.5-.5a131.226 131.226 0 0 0 .5 28c8.94-5.318 18.606-7.985 29-8 10.987-.228 20.653 3.106 29 10-18.958 12.595-38.458 13.261-58.5 2a131.226 131.226 0 0 0 .5 28 71.011 71.011 0 0 1 18-7.5c14.897-3.108 28.231.058 40 9.5a31.002 31.002 0 0 1-9 5.5c-16.836 5.575-33.169 4.409-49-3.5a131.226 131.226 0 0 0-.5 28c19.818-12.295 39.318-11.962 58.5 1a7.248 7.248 0 0 1-2 2.5c-18.972 10.105-37.805 9.938-56.5-.5a210.49 210.49 0 0 0 0 29 73.695 73.695 0 0 1 16.5-7.5c15.534-4.111 29.534-1.278 42 8.5a50.404 50.404 0 0 1-8 5.5c-17.269 6.816-33.936 5.649-50-3.5a324.876 324.876 0 0 0-1 36h-1a324.876 324.876 0 0 0-1-36 92.257 92.257 0 0 1-17 6.5c-15.402 3.62-29.402.787-42-8.5a63.132 63.132 0 0 1 13-7.5c15.783-4.572 30.783-2.738 45 5.5.06.543.393.876 1 1a105.628 105.628 0 0 0 0-29c-.607.124-.94.457-1 1a71.933 71.933 0 0 1-15 5.5c-15.661 4.046-29.995 1.38-43-8 3.159-3.082 6.825-5.416 11-7 16.806-5.702 32.806-3.868 48 5.5a140.73 140.73 0 0 0 .5-29A89.27 89.27 0 0 1 63.5 95c-14.922 2.877-28.588.044-41-8.5a7.253 7.253 0 0 1 2-2.5c19.032-11.335 38.032-11.168 57 .5a98.502 98.502 0 0 0 0-28 126.288 126.288 0 0 1-14 5.5c-16.262 4.78-31.262 2.28-45-7.5a14.832 14.832 0 0 1 4-3.5c18.253-9.02 36.253-8.52 54 1.5.06.543.393.876 1 1 1.323-9.825 1.323-19.492 0-29-20.216 11.337-39.882 10.67-59-2 8.119-6.706 17.452-10.04 28-10 10.643.44 20.643 3.106 30 8 .06.543.393.876 1 1a81.872 81.872 0 0 0 1-18z"/><path style="opacity:1" fill="#e4a31c" d="M106.5 109.5c12.394-1.235 23.728 1.599 34 8.5-18.733 11.221-37.4 11.221-56 0 7.125-3.757 14.459-6.591 22-8.5z"/><path style="opacity:1" fill="#185b2a" d="M42.5 109.5c13.595-1.268 26.262 1.566 38 8.5-12.068 6.945-25.068 9.278-39 7a63.058 63.058 0 0 1-17-7c5.698-3.684 11.698-6.518 18-8.5z"/><path style="opacity:1" fill="#e4a31c" d="M106.5 77.5c12.315-.906 23.648 1.927 34 8.5-18.224 11.056-36.557 11.223-55 .5 1.957-1.985 4.29-3.485 7-4.5 4.785-1.522 9.452-3.022 14-4.5z"/><path style="opacity:1" fill="#185b2a" d="M45.5 77.5c12.628-.593 24.294 2.407 35 9-13.914 7.678-28.58 9.511-44 5.5-4.115-1.224-7.782-3.224-11-6 6.183-4.266 12.85-7.1 20-8.5z"/><path style="opacity:1" fill="#e4a31c" d="M108.5 45.5c11.463-.554 21.796 2.446 31 9-18.16 10.417-36.493 10.583-55 .5 7.517-4.667 15.517-7.833 24-9.5z"/><path style="opacity:1" fill="#185b2a" d="M48.5 45.5c11.616.07 22.283 3.236 32 9.5-18.533 10.06-36.866 9.894-55-.5 6.909-5.187 14.576-8.187 23-9z"/><path style="opacity:1" fill="#e5a41c" d="M104.5 14.5c12.801-1.881 24.468.785 35 8-5.227 4.137-11.227 6.637-18 7.5-13.179 2.03-25.512-.303-37-7 6.39-3.7 13.056-6.534 20-8.5z"/><path style="opacity:1" fill="#185a2a" d="M41.5 14.5c14.047-1.737 27.047 1.096 39 8.5-15.387 8.263-31.387 9.596-48 4-2.71-1.015-5.043-2.515-7-4.5 5.157-3.245 10.49-5.912 16-8z"/><path style="opacity:1" fill="#185b2a" d="M41.5 141.5c14.058-1.734 27.058 1.1 39 8.5-13.21 7.369-27.21 9.369-42 6-4.837-1.324-9.17-3.49-13-6.5a85.84 85.84 0 0 1 16-8z"/><path style="opacity:1" fill="#e3a31c" d="M109.5 140.5a77.324 77.324 0 0 1 21 3.5c3.37 1.346 6.37 3.179 9 5.5-10.279 6.758-21.612 9.258-34 7.5a54.75 54.75 0 0 1-21-7c7.947-4.478 16.28-7.644 25-9.5z"/></svg>
